!!!OTL: Weihnachtslied mit Echo
!!!ARE: Europa, Mitteleuropa, Deutschland
!!!SCT: A0527
!!!YEM: Copyright 1995, estate of Helmut Schaffrath.
**kern
*ICvox
*Ivox
*M4/2
*k[b-e-]
*B-:
{2bb-
4aa
4gg
2.ff
4ff
=1
2gg
2aa
1bb-}
=2
{2bb-
4aa
4gg
2.ff
4ff
=3
2gg
2aa
1bb-}
=4
{2bb-
4aa
4gg
2.ff
4ff
=5
2gg
2aa
1bb-}
=6
{2bb-
4aa
4gg
2.ff
4ff
=7
2gg
2aa
2bb-}
{2bb-
=8
2.aa
4aa
1gg
=9
2.aa
4aa
1gg}
=10
{2bb-
2ccc
1ddd
=11
2bb-
2ccc
1ddd}
=12
{2ddd
4ccc
4bb-
2aa
2gg
=13
2aa
2ff#
1gg}
==
!!!AGN: Romanze, Ballade, Lied, religioeses Lied
!! Coelner Gsgb 1623 S. 103.
!!!ONB: ESAC (Essen Associative Code) Database: ALTDEU
!!!AMT: simple quadruple
!!!AIN: vox
!!!EED: Helmut Schaffrath
!!!EEV: 1.0
*-
